keyboards/ergodox_ez/base/keymaps/dvorak_qwerty/icon/keycaps.svg

<?xml version="1.0" encoding="UTF-8" standalone="no"?>
<!-- Created with Inkscape (http://www.inkscape.org/) -->

<svg
   width="8.5in"
   height="11in"
   viewBox="0 0 215.9 279.4"
   version="1.1"
   id="svg5"
   xml:space="preserve"
   xmlns="http://www.w3.org/2000/svg"
   xmlns:svg="http://www.w3.org/2000/svg"><defs
     id="defs2"><filter
       id="mask-powermask-path-effect3474_inverse"
       style="color-interpolation-filters:sRGB"
       height="100"
       width="100"
       x="-50"
       y="-50"><feColorMatrix
         id="mask-powermask-path-effect3474_primitive1"
         values="1"
         type="saturate"
         result="fbSourceGraphic" /><feColorMatrix
         id="mask-powermask-path-effect3474_primitive2"
         values="-1 0 0 0 1 0 -1 0 0 1 0 0 -1 0 1 0 0 0 1 0 "
         in="fbSourceGraphic" /></filter><mask
       maskUnits="userSpaceOnUse"
       id="mask-powermask-path-effect3496"><path
         id="mask-powermask-path-effect3496_box"
         style="fill:#ffffff;fill-opacity:1"
         d="M -1.0525801,-1.0097518 H 21.006277 V 20.981745 H -1.0525801 Z" /><g
         id="g3494"
         style="fill:#010101"><g
           id="g3486"
           style="fill:#010101"><rect
             style="fill:#010101;stroke:none;stroke-width:1.2112;stroke-linejoin:round;stroke-dasharray:none"
             id="rect3482"
             width="2.8137379"
             height="19.703007"
             x="3.8745773"
             y="-1.2377115"
             ry="0"
             d="M 3.8745773,-1.2377115 H 6.6883152 V 18.465295 H 3.8745773 Z" /><rect
             style="fill:#010101;stroke:none;stroke-width:1.2112;stroke-linejoin:round;stroke-dasharray:none"
             id="rect3484"
             width="2.8137379"
             height="19.703007"
             x="9.3527088"
             y="-1.2377115"
             ry="0"
             d="M 9.3527088,-1.2377115 H 12.166447 V 18.465295 H 9.3527088 Z" /></g><g
           id="g3492"
           transform="rotate(90,8.4916105,8.5703774)"
           style="fill:#010101"><rect
             style="fill:#010101;stroke:none;stroke-width:1.2112;stroke-linejoin:round;stroke-dasharray:none"
             id="rect3488"
             width="2.8137379"
             height="19.703007"
             x="3.8745773"
             y="-1.2377115"
             ry="0"
             d="M 3.8745773,-1.2377115 H 6.6883152 V 18.465295 H 3.8745773 Z" /><rect
             style="fill:#010101;stroke:none;stroke-width:1.2112;stroke-linejoin:round;stroke-dasharray:none"
             id="rect3490"
             width="2.8137379"
             height="19.703007"
             x="9.3527088"
             y="-1.2377115"
             ry="0"
             d="M 9.3527088,-1.2377115 H 12.166447 V 18.465295 H 9.3527088 Z" /></g></g></mask><filter
       id="mask-powermask-path-effect3496_inverse"
       style="color-interpolation-filters:sRGB"
       height="100"
       width="100"
       x="-50"
       y="-50"><feColorMatrix
         id="mask-powermask-path-effect3496_primitive1"
         values="1"
         type="saturate"
         result="fbSourceGraphic" /><feColorMatrix
         id="mask-powermask-path-effect3496_primitive2"
         values="-1 0 0 0 1 0 -1 0 0 1 0 0 -1 0 1 0 0 0 1 0 "
         in="fbSourceGraphic" /></filter></defs><g
     id="layer1"><rect
       style="fill:#010101;stroke-width:1.565;stroke-linejoin:round"
       id="rect234"
       width="11.4808"
       height="11.4808"
       x="25.350996"
       y="15.212917" /><text
       xml:space="preserve"
       style="font-size:7.05556px;line-height:1.25;font-family:Impact;-inkscape-font-specification:'Impact, Normal';font-variant-ligatures:none;fill:#00ffff;stroke-width:0.264583"
       x="32.178104"
       y="22.007248"
       id="text290"><tspan
         id="tspan288"
         style="fill:#00ffff;stroke-width:0.264583"
         x="32.178104"
         y="22.007248">^</tspan></text><text
       xml:space="preserve"
       style="font-size:7.05556px;line-height:1.25;font-family:Impact;-inkscape-font-specification:'Impact, Normal';font-variant-ligatures:none;fill:#ffffff;stroke-width:0.264583"
       x="26.149788"
       y="20.755163"
       id="text452"><tspan
         id="tspan450"
         style="fill:#ffffff;stroke-width:0.264583"
         x="26.149788"
         y="20.755163">&lt;</tspan></text><path
       style="fill:none;stroke:#ffaaaa;stroke-width:3.17187;stroke-linecap:butt;stroke-linejoin:round;stroke-dasharray:none;stroke-opacity:1"
       d="M 15.734576,19.972307 15.966162,0.7727482 H 0.72991996 V 15.834142 H 20.006277"
       id="path245"
       mask="url(#mask-powermask-path-effect3496)"
       transform="matrix(0.25449205,0,0,0.24375319,25.999957,21.378805)" /><g
       style="fill:#010101;stroke:#eeffaa;stroke-width:0.997795;stroke-dasharray:none"
       id="g3843"
       transform="matrix(0.00264583,0,0,0.00299861,35.647969,27.262104)"><path
         d="m 251.74698,-502.90656 c 0,31.172 -25.412,56.47 -56.47,56.47 H -1385.901 c -31.06,0 -56.47,-25.298 -56.47,-56.47 V -1914.6726 h 590.90698 l 150.552,225.884 H -1329.43 v 112.94 H 251.74798 v 1072.94204 z m -816.79,-1185.88204 -225.884,-338.824 H -1555.312 v 1524.70604 c 0,93.402 76.01,169.412 169.412,169.412 H 195.27598 c 93.403,0 169.412,-76.01 169.412,-169.412 V -1688.7886 h -929.732 z"
         fill-rule="evenodd"
         id="path3834"
         style="fill:#eeffaa;stroke:#eeffaa;stroke-width:0.997795;stroke-dasharray:none" /></g></g></svg>

<svg xmlns="http://www.w3.org/2000/svg" xml:space="preserve" width="816" height="11in" viewBox="0 0 215.9 279.4"><defs><mask id="a" maskUnits="userSpaceOnUse"><path d="M-1.053-1.01h22.06v21.992h-22.06Z" style="fill:#fff;fill-opacity:1"/><g style="fill:#010101"><g style="fill:#010101"><rect width="2.814" height="19.703" x="3.875" y="-1.238" ry="0" style="fill:#010101;stroke:none;stroke-width:1.2112;stroke-linejoin:round;stroke-dasharray:none"/><rect width="2.814" height="19.703" x="9.353" y="-1.238" ry="0" style="fill:#010101;stroke:none;stroke-width:1.2112;stroke-linejoin:round;stroke-dasharray:none"/></g><g style="fill:#010101" transform="rotate(90 8.492 8.57)"><rect width="2.814" height="19.703" x="3.875" y="-1.238" ry="0" style="fill:#010101;stroke:none;stroke-width:1.2112;stroke-linejoin:round;stroke-dasharray:none"/><rect width="2.814" height="19.703" x="9.353" y="-1.238" ry="0" style="fill:#010101;stroke:none;stroke-width:1.2112;stroke-linejoin:round;stroke-dasharray:none"/></g></g></mask></defs><path d="M25.351 15.213h11.481v11.481H25.351z" style="fill:#010101;stroke-width:1.565;stroke-linejoin:round"/><text xml:space="preserve" x="32.178" y="22.007" style="font-size:7.05556px;line-height:1.25;font-family:Impact;font-variant-ligatures:none;fill:#fff;stroke-width:.264583"><tspan x="26.15" y="20.755" style="fill:#fff;stroke-width:.264583">&lt;</tspan></text><path d="m15.735 19.972.231-19.2H.73v15.062h19.276" mask="url(#a)" style="fill:none;stroke:#faa;stroke-width:3.17187;stroke-linecap:butt;stroke-linejoin:round;stroke-dasharray:none;stroke-opacity:1" transform="matrix(.2545 0 0 .24375 26 21.379)"/><g style="fill:#010101;stroke:#efa;stroke-width:.997795;stroke-dasharray:none"><path fill-rule="evenodd" d="M251.747-502.907c0 31.172-25.412 56.47-56.47 56.47h-1581.178c-31.06 0-56.47-25.298-56.47-56.47v-1411.766h590.907l150.552 225.884h-628.518v112.94H251.748zm-816.79-1185.882-225.884-338.824h-764.385v1524.706c0 93.402 76.01 169.412 169.412 169.412H195.276c93.403 0 169.412-76.01 169.412-169.412v-1185.882z" style="fill:#efa;stroke:#efa;stroke-width:.997795;stroke-dasharray:none" transform="matrix(.00265 0 0 .003 35.648 27.262)"/></g></svg>
